IMB-X-Files/The-Ambassadors-Assets/65f43207d485843526416816_Badge-EnterprisePartner-Blue.svg

<svg fill="none" height="50" viewBox="0 0 215 50" width="215" xmlns="http://www.w3.org/2000/svg" xmlns:xlink="http://www.w3.org/1999/xlink"><clipPath id="a"><rect height="48.0319" rx="9.14894" width="215" y=".984375"/></clipPath><g clip-path="url(#a)" fill="#fff"><path d="m33.5625 22.1525s-1.6734 5.036-1.7992 5.4634c-.0484-.4274-1.2672-9.4772-1.2672-9.4772-2.8536 0-4.3725 1.9418-5.1753 4.0138 0 0-2.0314 5.0546-2.1959 5.482-.0097-.3995-.3095-5.4262-.3095-5.4262-.1742-2.5272-2.5732-4.0604-4.5175-4.0604l2.3409 13.7142c2.9891-.0093 4.595-1.9513 5.4366-4.0139 0 0 1.7895-4.4599 1.8669-4.6643.0193.1952 1.2866 8.6782 1.2866 8.6782 2.9891 0 4.6045-1.8211 5.4752-3.8095l4.1789-9.9139c-2.9601 0-4.5176 1.9418-5.3205 4.0138z"/><path d="m58.4942 29.5756h7.4289v-1.6811h-5.2995v-3.3463h4.0347v-1.601h-4.0347v-3.1381h5.0274v-1.6811h-7.1568zm9.1899 0h1.9373v-4.9313c0-1.3289.8806-2.0013 1.9693-2.0013 1.1527 0 1.6651.5763 1.6651 1.8412v5.0914h1.9373v-5.2675c0-2.3056-1.1848-3.2822-2.8659-3.2822-1.3769 0-2.3056.6884-2.7058 1.505v-1.3289h-1.9373zm12.5907.1441c.5924 0 1.0087-.0961 1.3129-.2082v-1.537c-.2722.1121-.5604.1601-.9446.1601-.6084 0-.9606-.3362-.9606-1.0727v-4.4029h1.8412v-1.457h-1.8412v-1.8412h-1.9373v1.8412h-1.1208v1.457h1.1208v4.579c0 1.5851.8645 2.4817 2.5296 2.4817zm6.7427.016c2.1454 0 3.5704-.9607 3.8426-2.7218h-1.8733c-.1441.8165-.7525 1.2808-1.9213 1.2808-1.4409 0-2.2415-.8966-2.3055-2.4816h6.1321v-.5604c0-2.994-1.8733-4.2268-3.9547-4.2268-2.3855 0-4.1627 1.7291-4.1627 4.3229v.128c0 2.6418 1.7772 4.2589 4.2428 4.2589zm-2.2255-5.2195c.1921-1.2969.9767-2.0814 2.1454-2.0814 1.2008 0 1.9373.6404 2.0334 2.0814zm7.8305 5.0594h1.9373v-4.3549c0-1.7772 1.0246-2.3216 2.7218-2.3376v-1.8092c-1.409.016-2.1935.6404-2.7218 1.6971v-1.569h-1.9373zm6.3636 2.8659h1.9369v-4.1788c.449.8165 1.409 1.473 2.738 1.473 2.162 0 3.715-1.6331 3.715-4.3229v-.1281c0-2.7058-1.617-4.2588-3.715-4.2588-1.233 0-2.273.7205-2.738 1.521v-1.3449h-1.9369zm4.1949-4.2428c-1.409 0-2.322-.8806-2.322-2.7539v-.1281c0-1.8572.961-2.7698 2.306-2.7698 1.265 0 2.225.9126 2.225 2.7698v.1281c0 1.7932-.784 2.7539-2.209 2.7539zm5.937 1.3769h1.937v-4.3549c0-1.7772 1.025-2.3216 2.722-2.3376v-1.8092c-1.409.016-2.193.6404-2.722 1.6971v-1.569h-1.937zm6.412 0h1.937v-8.3736h-1.937zm.944-9.7505c.641 0 1.153-.4803 1.153-1.1047 0-.6405-.512-1.1208-1.153-1.1208-.64 0-1.152.4803-1.152 1.1208 0 .6244.512 1.1047 1.152 1.1047zm6.219 9.9106c2.146 0 3.347-.9767 3.347-2.6738 0-1.7772-1.169-2.2575-3.138-2.5617-1.329-.2242-1.73-.4643-1.73-1.0727 0-.5924.497-.9927 1.329-.9927.897 0 1.329.3523 1.489 1.1208h1.793c-.208-1.8893-1.569-2.5297-3.282-2.5297-1.569 0-3.138.8325-3.138 2.5137 0 1.569.817 2.1934 3.026 2.5456 1.233.2082 1.793.4644 1.793 1.1528 0 .7045-.464 1.0727-1.505 1.0727-1.136 0-1.569-.4963-1.665-1.3449h-1.825c.08 1.7772 1.345 2.7699 3.506 2.7699zm8.729 0c2.145 0 3.57-.9607 3.842-2.7218h-1.873c-.144.8165-.753 1.2808-1.921 1.2808-1.441 0-2.242-.8966-2.306-2.4816h6.132v-.5604c0-2.994-1.873-4.2268-3.955-4.2268-2.385 0-4.162 1.7291-4.162 4.3229v.128c0 2.6418 1.777 4.2589 4.243 4.2589zm-2.226-5.2195c.192-1.2969.977-2.0814 2.145-2.0814 1.201 0 1.938.6404 2.034 2.0814zm11.806 5.0594h2.129v-4.3549h1.601c2.45 0 4.195-1.0727 4.195-3.4903v-.0641c0-2.4016-1.681-3.5383-4.243-3.5383h-3.682zm2.129-5.8919v-3.9066h1.553c1.361 0 2.161.5283 2.161 1.8892v.0641c0 1.2648-.752 1.9533-2.161 1.9533zm9.505 6.052c1.28 0 2.017-.4643 2.561-1.1848v1.0247h1.906v-5.4917c0-2.2895-1.473-3.058-3.347-3.058-1.873 0-3.426.8165-3.586 2.7698h1.873c.096-.8325.593-1.3128 1.601-1.3128 1.137 0 1.521.5603 1.521 1.6811v.4323h-1.04c-2.402 0-4.291.7044-4.291 2.6577 0 1.7452 1.265 2.4817 2.802 2.4817zm.464-1.393c-.961 0-1.345-.4643-1.345-1.1687 0-1.0247.945-1.3609 2.418-1.3609h.992v.8325c0 1.0727-.88 1.6971-2.065 1.6971zm6.223 1.2329h1.938v-4.3549c0-1.7772 1.024-2.3216 2.722-2.3376v-1.8092c-1.409.016-2.194.6404-2.722 1.6971v-1.569h-1.938zm9.291.1441c.593 0 1.009-.0961 1.313-.2082v-1.537c-.272.1121-.56.1601-.945.1601-.608 0-.96-.3362-.96-1.0727v-4.4029h1.841v-1.457h-1.841v-1.8412h-1.937v1.8412h-1.121v1.457h1.121v4.579c0 1.5851.864 2.4817 2.529 2.4817zm3.061-.1441h1.937v-4.9313c0-1.3289.88-2.0013 1.969-2.0013 1.153 0 1.665.5763 1.665 1.8412v5.0914h1.938v-5.2675c0-2.3056-1.185-3.2822-2.866-3.2822-1.377 0-2.306.6884-2.706 1.505v-1.3289h-1.937zm13.423.1601c2.146 0 3.571-.9607 3.843-2.7218h-1.873c-.144.8165-.753 1.2808-1.922 1.2808-1.441 0-2.241-.8966-2.305-2.4816h6.132v-.5604c0-2.994-1.873-4.2268-3.955-4.2268-2.385 0-4.162 1.7291-4.162 4.3229v.128c0 2.6418 1.777 4.2589 4.242 4.2589zm-2.225-5.2195c.192-1.2969.976-2.0814 2.145-2.0814 1.201 0 1.938.6404 2.034 2.0814zm7.83 5.0594h1.937v-4.3549c0-1.7772 1.025-2.3216 2.722-2.3376v-1.8092c-1.409.016-2.193.6404-2.722 1.6971v-1.569h-1.937z"/></g></svg>

<svg width="215" height="50" viewBox="0 0 215 50" fill="none" xmlns="http://www.w3.org/2000/svg">
    <g clip-path="url(#clip0_280_1985)">
        <path
            d="M33.5625 22.1525C33.5625 22.1525 31.8891 27.1885 31.7633 27.6159C31.7149 27.1885 30.4961 18.1387 30.4961 18.1387C27.6425 18.1387 26.1236 20.0805 25.3208 22.1525C25.3208 22.1525 23.2894 27.2071 23.1249 27.6345C23.1152 27.235 22.8154 22.2083 22.8154 22.2083C22.6412 19.6811 20.2422 18.1479 18.2979 18.1479L20.6388 31.8621C23.6279 31.8528 25.2338 29.9108 26.0754 27.8482C26.0754 27.8482 27.8649 23.3883 27.9423 23.1839C27.9616 23.3791 29.2289 31.8621 29.2289 31.8621C32.218 31.8621 33.8334 30.041 34.7041 28.0526L38.883 18.1387C35.9229 18.1387 34.3654 20.0805 33.5625 22.1525Z"
            fill="white" />
        <path
            d="M58.4942 29.5756H65.9231V27.8945H60.6236V24.5482H64.6583V22.9472H60.6236V19.8091H65.651V18.128H58.4942V29.5756ZM67.6841 29.5756H69.6214V24.6443C69.6214 23.3154 70.502 22.643 71.5907 22.643C72.7434 22.643 73.2558 23.2193 73.2558 24.4842V29.5756H75.1931V24.3081C75.1931 22.0025 74.0083 21.0259 72.3272 21.0259C70.9503 21.0259 70.0216 21.7143 69.6214 22.5309V21.202H67.6841V29.5756ZM80.2748 29.7197C80.8672 29.7197 81.2835 29.6236 81.5877 29.5115V27.9745C81.3155 28.0866 81.0273 28.1346 80.6431 28.1346C80.0347 28.1346 79.6825 27.7984 79.6825 27.0619V22.659H81.5237V21.202H79.6825V19.3608H77.7452V21.202H76.6244V22.659H77.7452V27.238C77.7452 28.8231 78.6097 29.7197 80.2748 29.7197ZM87.0175 29.7357C89.1629 29.7357 90.5879 28.775 90.8601 27.0139H88.9868C88.8427 27.8304 88.2343 28.2947 87.0655 28.2947C85.6246 28.2947 84.824 27.3981 84.76 25.8131H90.8921V25.2527C90.8921 22.2587 89.0188 21.0259 86.9374 21.0259C84.5519 21.0259 82.7747 22.755 82.7747 25.3488V25.4768C82.7747 28.1186 84.5519 29.7357 87.0175 29.7357ZM84.792 24.5162C84.9841 23.2193 85.7687 22.4348 86.9374 22.4348C88.1382 22.4348 88.8747 23.0752 88.9708 24.5162H84.792ZM92.6225 29.5756H94.5598V25.2207C94.5598 23.4435 95.5844 22.8991 97.2816 22.8831V21.0739C95.8726 21.0899 95.0881 21.7143 94.5598 22.771V21.202H92.6225V29.5756ZM98.9861 32.4415H100.923V28.2627C101.372 29.0792 102.332 29.7357 103.661 29.7357C105.823 29.7357 107.376 28.1026 107.376 25.4128V25.2847C107.376 22.5789 105.759 21.0259 103.661 21.0259C102.428 21.0259 101.388 21.7464 100.923 22.5469V21.202H98.9861V32.4415ZM103.181 28.1987C101.772 28.1987 100.859 27.3181 100.859 25.4448V25.3167C100.859 23.4595 101.82 22.5469 103.165 22.5469C104.43 22.5469 105.39 23.4595 105.39 25.3167V25.4448C105.39 27.238 104.606 28.1987 103.181 28.1987ZM109.118 29.5756H111.055V25.2207C111.055 23.4435 112.08 22.8991 113.777 22.8831V21.0739C112.368 21.0899 111.584 21.7143 111.055 22.771V21.202H109.118V29.5756ZM115.53 29.5756H117.467V21.202H115.53V29.5756ZM116.474 19.8251C117.115 19.8251 117.627 19.3448 117.627 18.7204C117.627 18.0799 117.115 17.5996 116.474 17.5996C115.834 17.5996 115.322 18.0799 115.322 18.7204C115.322 19.3448 115.834 19.8251 116.474 19.8251ZM122.693 29.7357C124.839 29.7357 126.04 28.759 126.04 27.0619C126.04 25.2847 124.871 24.8044 122.902 24.5002C121.573 24.276 121.172 24.0359 121.172 23.4275C121.172 22.8351 121.669 22.4348 122.501 22.4348C123.398 22.4348 123.83 22.7871 123.99 23.5556H125.783C125.575 21.6663 124.214 21.0259 122.501 21.0259C120.932 21.0259 119.363 21.8584 119.363 23.5396C119.363 25.1086 120.18 25.733 122.389 26.0852C123.622 26.2934 124.182 26.5496 124.182 27.238C124.182 27.9425 123.718 28.3107 122.677 28.3107C121.541 28.3107 121.108 27.8144 121.012 26.9658H119.187C119.267 28.743 120.532 29.7357 122.693 29.7357ZM131.422 29.7357C133.567 29.7357 134.992 28.775 135.264 27.0139H133.391C133.247 27.8304 132.638 28.2947 131.47 28.2947C130.029 28.2947 129.228 27.3981 129.164 25.8131H135.296V25.2527C135.296 22.2587 133.423 21.0259 131.341 21.0259C128.956 21.0259 127.179 22.755 127.179 25.3488V25.4768C127.179 28.1186 128.956 29.7357 131.422 29.7357ZM129.196 24.5162C129.388 23.2193 130.173 22.4348 131.341 22.4348C132.542 22.4348 133.279 23.0752 133.375 24.5162H129.196ZM141.002 29.5756H143.131V25.2207H144.732C147.182 25.2207 148.927 24.148 148.927 21.7304V21.6663C148.927 19.2647 147.246 18.128 144.684 18.128H141.002V29.5756ZM143.131 23.6837V19.7771H144.684C146.045 19.7771 146.845 20.3054 146.845 21.6663V21.7304C146.845 22.9952 146.093 23.6837 144.684 23.6837H143.131ZM152.636 29.7357C153.916 29.7357 154.653 29.2714 155.197 28.5509V29.5756H157.103V24.0839C157.103 21.7944 155.63 21.0259 153.756 21.0259C151.883 21.0259 150.33 21.8424 150.17 23.7957H152.043C152.139 22.9632 152.636 22.4829 153.644 22.4829C154.781 22.4829 155.165 23.0432 155.165 24.164V24.5963H154.125C151.723 24.5963 149.834 25.3007 149.834 27.254C149.834 28.9992 151.099 29.7357 152.636 29.7357ZM153.1 28.3427C152.139 28.3427 151.755 27.8784 151.755 27.174C151.755 26.1493 152.7 25.8131 154.173 25.8131H155.165V26.6456C155.165 27.7183 154.285 28.3427 153.1 28.3427ZM159.323 29.5756H161.261V25.2207C161.261 23.4435 162.285 22.8991 163.983 22.8831V21.0739C162.574 21.0899 161.789 21.7143 161.261 22.771V21.202H159.323V29.5756ZM168.614 29.7197C169.207 29.7197 169.623 29.6236 169.927 29.5115V27.9745C169.655 28.0866 169.367 28.1346 168.982 28.1346C168.374 28.1346 168.022 27.7984 168.022 27.0619V22.659H169.863V21.202H168.022V19.3608H166.085V21.202H164.964V22.659H166.085V27.238C166.085 28.8231 166.949 29.7197 168.614 29.7197ZM171.675 29.5756H173.612V24.6443C173.612 23.3154 174.492 22.643 175.581 22.643C176.734 22.643 177.246 23.2193 177.246 24.4842V29.5756H179.184V24.3081C179.184 22.0025 177.999 21.0259 176.318 21.0259C174.941 21.0259 174.012 21.7143 173.612 22.5309V21.202H171.675V29.5756ZM185.098 29.7357C187.244 29.7357 188.669 28.775 188.941 27.0139H187.068C186.924 27.8304 186.315 28.2947 185.146 28.2947C183.705 28.2947 182.905 27.3981 182.841 25.8131H188.973V25.2527C188.973 22.2587 187.1 21.0259 185.018 21.0259C182.633 21.0259 180.856 22.755 180.856 25.3488V25.4768C180.856 28.1186 182.633 29.7357 185.098 29.7357ZM182.873 24.5162C183.065 23.2193 183.849 22.4348 185.018 22.4348C186.219 22.4348 186.956 23.0752 187.052 24.5162H182.873ZM190.703 29.5756H192.64V25.2207C192.64 23.4435 193.665 22.8991 195.362 22.8831V21.0739C193.953 21.0899 193.169 21.7143 192.64 22.771V21.202H190.703V29.5756Z"
            fill="white" />
    </g>
    <defs>
        <clipPath id="clip0_280_1985">
            <rect y="0.984375" width="215" height="48.0319" rx="9.14894" fill="white" />
        </clipPath>
    </defs>
</svg>
